src/assets/social/blog.svg

<svg height="22" viewBox="0 0 22 22" width="22" xmlns="http://www.w3.org/2000/svg"><g fill="none" transform="translate(.021442)"><path d="m19.305784 5.38022356-2.7290601-2.72906007-5.0817038 5.12425381 2.7295626 2.7293951z" fill="#e1e1e1"/><path d="m9.04990559 12.1071363c-.22095822.5305343.31175377 1.0625762.84195295.8409479l3.26679766-1.6899367-2.4203216-2.4203216z" fill="#e9e9e9"/><path d="m21.7686556 2.917352c.2512792-.25127924.2512792-.65851914 0-.90979838l-1.8192617-1.81909419c-.2512792-.25127924-.6585191-.25127924-.9097984 0l-1.5530732 1.55307323 2.7288925 2.72906008z" fill="#ddd"/><path d="m1.92982456 18.0545809h.64327486v3.2592593c0 .2599902.15646322.4950201.39702117.5941916.2370401.099004.51529001.0462354.70106911-.1393762l3.7140747-3.7140747h7.4958272c1.0640838 0 1.9298246-.8657407 1.9298246-1.9298246v-6.38701568l-2.0291636 2.02916358c-.1770681.1772357-.3837872.3166119-.6156342.4139407l-3.6830836 1.9097222c-.3348714.1445694-.58615065.1954953-.8424555.1954953-.19147475 0-.37608125-.0368543-.5544895-.0911306h-4.58316582c-.3556439 0-.64327486-.2877985-.64327486-.6432749 0-.3556439.28763096-.6432748.64327486-.6432748h3.25741653c-.12697975-.421144-.07253593-.8772996.10252193-1.2959308l1.98510602-3.85529366c.05645405-.14255906.19599774-.34994821.37256334-.52634623l2.0417276-2.04172758h-10.33243484c-1.06408382 0-1.92982456.86574074-1.92982456 1.92982456v9.00584791c0 1.0640839.86574074 1.9298246 1.92982456 1.9298246z" fill="#fff"/></g></svg>

<?xml version="1.0" encoding="UTF-8"?>
<svg width="22px" height="22px" viewBox="0 0 22 22" version="1.1" xmlns="http://www.w3.org/2000/svg" xmlns:xlink="http://www.w3.org/1999/xlink">
    <!-- Generator: Sketch 53.2 (72643) - https://sketchapp.com -->
    <title>Blog</title>
    <g id="Symbols" stroke="none" stroke-width="1" fill="none" fill-rule="evenodd">
        <g id="Footer" transform="translate(-682.000000, -103.000000)" fill-rule="nonzero">
            <g id="Group-3" transform="translate(437.000000, 50.000000)">
                <g id="Group-2" transform="translate(245.021442, 53.000000)">
                    <polygon id="Path" fill="#E1E1E1" points="19.305784 5.38022356 16.5767239 2.65116349 11.4950201 7.7754173 14.2245827 10.5048124"></polygon>
                    <path d="M9.04990559,12.1071363 C8.82894737,12.6376706 9.36165936,13.1697125 9.89185854,12.9480842 L13.1586562,11.2581475 L10.7383346,8.8378259 L9.04990559,12.1071363 Z" id="Path" fill="#E9E9E9"></path>
                    <path d="M21.7686556,2.917352 C22.0199348,2.66607276 22.0199348,2.25883286 21.7686556,2.00755362 L19.9493939,0.18845943 C19.6981147,-0.0628198099 19.2908748,-0.0628198099 19.0395955,0.18845943 L17.4865223,1.74153266 L20.2154148,4.47059274 L21.7686556,2.917352 Z" id="Path" fill="#DDDDDD"></path>
                    <path d="M1.92982456,18.0545809 L2.57309942,18.0545809 L2.57309942,21.3138402 C2.57309942,21.5738304 2.72956264,21.8088603 2.97012059,21.9080318 C3.20716069,22.0070358 3.4854106,21.9542672 3.6711897,21.7686556 L7.3852644,18.0545809 L14.8810916,18.0545809 C15.9451754,18.0545809 16.8109162,17.1888402 16.8109162,16.1247563 L16.8109162,9.73774062 L14.7817526,11.7669042 C14.6046845,11.9441399 14.3979654,12.0835161 14.1661184,12.1808449 L10.4830348,14.0905671 C10.1481634,14.2351365 9.89688415,14.2860624 9.6405793,14.2860624 C9.44910455,14.2860624 9.26449805,14.2492081 9.0860898,14.1949318 L4.50292398,14.1949318 C4.14728008,14.1949318 3.85964912,13.9071333 3.85964912,13.5516569 C3.85964912,13.196013 4.14728008,12.9083821 4.50292398,12.9083821 L7.76034051,12.9083821 C7.63336076,12.4872381 7.68780458,12.0310825 7.86286244,11.6124513 L9.84796846,7.75715764 C9.90442251,7.61459858 10.0439662,7.40720943 10.2205318,7.23081141 L12.2622594,5.18908383 L1.92982456,5.18908383 C0.865740741,5.18908383 1.0658141e-14,6.05482457 1.0658141e-14,7.11890839 L1.0658141e-14,16.1247563 C1.0658141e-14,17.1888402 0.865740741,18.0545809 1.92982456,18.0545809 L1.92982456,18.0545809 Z" id="Path" fill="#FFFFFF"></path>
                </g>
            </g>
        </g>
    </g>
</svg>
